logos/codecov-icon.svg

<?xml version="1.0" encoding="UTF-8"?>
<svg width="256px" height="245px" viewBox="0 0 256 245" version="1.1" xmlns="http://www.w3.org/2000/svg" preserveAspectRatio="xMidYMid">
    <title>Codecov</title>
    <g>
        <path d="M128.285078,-1.42108547e-14 C57.5857461,-1.42108547e-14 0,56.9756788 0,126.486007 L0,127.055764 L21.6659243,139.590413 L22.2360802,139.590413 C35.9198218,130.474305 52.4543429,127.055764 68.9888642,129.904548 C80.3919823,132.183575 91.2249442,137.311386 99.7772828,145.287981 L103.768374,148.706522 L106.048998,144.148467 C108.329621,139.590413 110.610245,135.602116 112.890869,131.613818 C114.03118,129.904548 115.171492,128.765034 116.311804,127.055764 L118.592428,124.20698 L115.741648,121.927953 C103.768374,112.242087 89.5144767,105.405006 74.1202672,102.556222 C59.2962139,99.7074379 44.4721603,100.277195 30.7884188,104.835249 C41.051225,59.8244628 80.962138,27.9180826 128.285078,27.9180826 C155.082405,27.9180826 180.169265,38.1737049 198.984411,56.9756788 C212.668152,70.0800851 221.790645,86.6030318 225.781736,104.835249 C217.229399,101.986465 208.106904,100.846952 198.984411,100.846952 L197.273943,100.846952 C193.853007,100.846952 190.432071,101.416708 186.44098,101.416708 L185.870824,101.416708 C184.730512,101.416708 183.020045,101.986465 181.879733,101.986465 C179.599109,102.556222 177.888641,102.556222 175.608018,103.125979 L173.89755,103.695736 C172.187082,104.265492 170.476615,104.835249 168.766147,105.405006 L168.195991,105.405006 C164.2049,106.544519 160.783964,108.25379 156.792873,109.96306 L156.792873,109.96306 C155.082405,110.532817 153.371938,111.67233 151.66147,112.811844 L151.091314,112.811844 C142.538976,117.939655 134.556793,124.20698 128.285078,132.183575 L127.714922,133.323089 C126.004454,135.602116 124.864143,137.311386 123.723831,138.450899 C122.583519,139.590413 122.013363,141.299683 120.873051,143.008954 L120.302895,144.148467 C119.162583,145.857738 118.592428,147.567008 118.022272,148.706522 L118.022272,149.276279 C116.311804,152.694819 114.601336,156.683117 113.461024,160.671414 L113.461024,161.241171 C110.610245,170.35728 108.899777,180.043145 108.899777,190.298767 L108.899777,191.438281 C108.899777,192.577795 108.899777,194.287065 108.899777,195.426579 C108.899777,195.996335 108.899777,196.566092 108.899777,197.135848 C108.899777,197.705606 108.899777,198.845119 108.899777,199.414877 L108.899777,199.984632 L108.899777,201.124147 C108.899777,202.26366 109.469933,203.972931 109.469933,205.112444 C112.320713,218.786607 118.592428,231.891013 128.285078,243.855905 L128.855234,244.425663 L129.42539,243.855905 C133.416481,239.297851 142.538976,225.053932 143.679287,216.507579 L143.679287,216.507579 L143.679287,216.507579 C139.11804,207.961228 136.837417,198.275361 136.837417,189.159254 C136.837417,157.252874 161.924276,130.474305 194.423162,128.765034 L196.703786,128.765034 C209.817372,128.195277 222.930958,132.183575 233.763921,139.590413 L234.334076,139.590413 L256,127.055764 L256,127.055764 L256,126.486007 C256,92.8703565 242.886414,60.9639763 218.369711,37.0341912 C194.423162,13.1044061 162.494432,-1.42108547e-14 128.285078,-1.42108547e-14" fill="#FF0077"></path>
    </g>
</svg>

<?xml version="1.0" encoding="UTF-8"?>
<svg width="256" height="245" version="1.1" xmlns="http://www.w3.org/2000/svg" preserveAspectRatio="xMidYMid">
	<path d="M128.285 0C57.585 0 0 56.976 0 126.486v.57l21.666 12.534h.57c13.684-9.116 30.218-12.534 46.753-9.685 11.403 2.279 22.236 7.406 30.788 15.383l3.991 3.419 2.281-4.559c2.28-4.558 4.561-8.546 6.842-12.534 1.14-1.71 2.28-2.849 3.42-4.558l2.281-2.849-2.85-2.279c-11.974-9.686-26.228-16.523-41.622-19.372-14.824-2.849-29.648-2.279-43.332 2.28 10.263-45.012 50.174-76.918 97.497-76.918 26.797 0 51.884 10.256 70.7 29.058 13.683 13.104 22.806 29.627 26.797 47.86-8.553-2.85-17.675-3.989-26.798-3.989h-1.71c-3.421 0-6.842.57-10.833.57h-.57c-1.14 0-2.851.57-3.991.57-2.28.57-3.991.57-6.272 1.139l-1.71.57-5.132 1.709h-.57c-3.991 1.14-7.412 2.849-11.403 4.558-1.71.57-3.421 1.71-5.132 2.849h-.57c-8.552 5.128-16.534 11.395-22.806 19.372l-.57 1.14c-1.71 2.278-2.85 3.987-3.991 5.127-1.14 1.14-1.71 2.849-2.85 4.558l-.571 1.14c-1.14 1.709-1.71 3.418-2.28 4.558v.57c-1.711 3.418-3.422 7.406-4.562 11.394v.57c-2.85 9.116-4.561 18.802-4.561 29.058v10.826c0 1.139.57 2.848.57 3.987 2.85 13.675 9.122 26.779 18.815 38.744l.57.57.57-.57c3.991-4.558 13.114-18.802 14.254-27.348-4.561-8.547-6.842-18.233-6.842-27.349 0-31.906 25.087-58.685 57.586-60.394h2.28c13.114-.57 26.228 3.419 37.06 10.825h.571L256 127.056v-.57c0-33.616-13.114-65.522-37.63-89.452C194.423 13.104 162.494 0 128.285 0" fill="#F07"/>
</svg>
